X:106
T:The glen road to Carrick
R:Reel
O:Ireland
B:Ceol Rince 3 n182
D:Fiddlesticks
Z:Transcription, chords:Mike Long
M:C|
L:1/8
K:D
P:APB Seamus Glackin
AG\
|:"D"FD~D2 FDGE|"D"FDFG "A"AdAG|"D"FD~D2 DEFD|[1 "C"Ed=cA "G"GcAG:|[2 "C"Ed=cA "G"G3c|]
"D"Addc AcAG|"D"FAdc "A"A2 FG|"D"Addc AGFD|"C"Ed=cA "G"G2 FG|\
"D"Fddc AcAG|"D"FAdc "A"A2 (3(ABc)|
"D"defd AGFD|"C"Fd=cA "G"Ggeg\
|:"D"fd ~d2 ddeg|"D"fdfg "A"abag|"D"fd ~d2 ddef|"C"~g2bg "G"efge:|
"D"fded dBAG|"D"FDDF "A"A2Bc|"D"defd AGFD|"C"Ed=cA "G"Ggeg|\
"D"(3(faf) ed dBAG|
"D"FDDF "A"A2Bc|"D"defd AGFD|"C"Ed=cA "G"GAB^c|]\
"D"d2~D2 A2~D2|"D"D2~D2 "A"A2Bc|"D"dD~D2 AD~D2|
"C"GE=CE "G"GAB^c|\
"D"dD~D2 dDcD|"D"d2~D2 "A"A2 (3(ABc)|"D"defd AGFD|"C"Ed=cA "G"GcAG|]
